packages/tokens/icons/figureGear/size16Px.svg

<svg viewBox="0 0 18 18" fill="none" xmlns="http://www.w3.org/2000/svg" width="1em" height="1em"><path d="M9.5 7.5C10.8807 7.5 12 6.38071 12 5C12 3.61929 10.8807 2.5 9.5 2.5C8.11929 2.5 7 3.61929 7 5C7 6.38071 8.11929 7.5 9.5 7.5Z" stroke="currentColor" stroke-linecap="round" stroke-linejoin="round"/><path d="M8 9.5H6.5C5.39543 9.5 4.5 10.3954 4.5 11.5L4.5 13.5" stroke="currentColor" stroke-linecap="round" stroke-linejoin="round"/><path d="M12.6175 11.3197C12.7183 11.6046 12.9688 11.8674 13.3164 11.9284L13.3154 11.9695C12.9651 12.0124 12.7012 12.2618 12.5858 12.5411C12.574 12.5695 12.5616 12.5974 12.5484 12.6249C12.4179 12.8979 12.4093 13.261 12.6119 13.55L12.5822 13.5782C12.3041 13.3608 11.941 13.3506 11.6617 13.4668C11.6335 13.4786 11.6049 13.4896 11.5759 13.4998L11.7333 13.9447L11.5759 13.4998C11.291 13.6006 11.0282 13.8512 10.9671 14.1988L10.9261 14.1977C10.8832 13.8474 10.6338 13.5835 10.3544 13.4681C10.3261 13.4563 10.2981 13.4439 10.2705 13.4307C9.99753 13.3001 9.63428 13.2915 9.34523 13.4943L9.31701 13.4645C9.53454 13.1864 9.54481 12.8232 9.42861 12.5438L8.96694 12.7358L9.42861 12.5438C9.41692 12.5157 9.40597 12.4872 9.39577 12.4584C9.29494 12.1734 9.04435 11.9106 8.69671 11.8496L8.69778 11.8086C9.0481 11.7657 9.31196 11.5162 9.4274 11.2368C9.43912 11.2085 9.45158 11.1805 9.46476 11.1529C9.59532 10.8799 9.60392 10.5167 9.40114 10.2277L9.43087 10.1994C9.70901 10.4169 10.0722 10.4272 10.3516 10.311C10.3798 10.2992 10.4084 10.2882 10.4373 10.278C10.7223 10.1772 10.985 9.92668 11.0461 9.57911L11.0871 9.58017C11.13 9.93045 11.3795 10.1943 11.6588 10.3097C11.6871 10.3214 11.715 10.3339 11.7425 10.347C12.0155 10.4776 12.3787 10.4862 12.6677 10.2834L12.696 10.3132C12.4785 10.5913 12.4683 10.9544 12.5845 11.2338C12.5963 11.2621 12.6073 11.2907 12.6175 11.3197Z" stroke="currentColor"/></svg>

<svg xmlns="http://www.w3.org/2000/svg" fill="none" viewBox="0 0 18 18" width="1em" height="1em"><path stroke="currentColor" stroke-linecap="round" stroke-linejoin="round" d="M9.5 7.5a2.5 2.5 0 1 0 0-5 2.5 2.5 0 0 0 0 5ZM8 9.5H6.5a2 2 0 0 0-2 2v2"/><path stroke="currentColor" d="M12.617 11.32a.927.927 0 0 0 .7.608l-.002.041a.927.927 0 0 0-.73.572 1.706 1.706 0 0 1-.037.084.927.927 0 0 0 .064.925l-.03.028a.926.926 0 0 0-.92-.111 1.582 1.582 0 0 1-.086.033l.157.445-.157-.445a.927.927 0 0 0-.609.699l-.04-.001a.926.926 0 0 0-.573-.73 1.799 1.799 0 0 1-.083-.037.926.926 0 0 0-.926.063l-.028-.03a.926.926 0 0 0 .112-.92l-.462.192.462-.192a1.7 1.7 0 0 1-.033-.086.927.927 0 0 0-.7-.608l.002-.041a.927.927 0 0 0 .73-.572c.011-.028.024-.056.037-.084a.926.926 0 0 0-.064-.925l.03-.029a.927.927 0 0 0 .92.112c.029-.012.057-.023.086-.033a.927.927 0 0 0 .61-.699l.04.001a.93.93 0 0 0 .572.73c.028.011.056.024.083.037.273.13.637.14.926-.064l.028.03a.926.926 0 0 0-.111.92l.032.087Z"/></svg>
